X: 21
T: Miss Barbara Stewart
R: jig
Q: "Slowish"
B: William Shepherd "1st Collection" 1793 p.2 #1
F: http://imslp.org/wiki/File:PMLP73094-Shepherd_Collections_HMT.pdf
C: William Shepherd (17??-1812)
Z: 2012 John Chambers <jc:trillian.mit.edu>
M: 6/8
L: 1/8
K: Em
E/D/ |\
B,<EE TE2F | G2A BAG | FdA BAG | F<DD D2E |\
B,<EE TE2F | G2A BAG | FdA BAF | G<EE TE2 :|
|: B |\
e2f {ef}g>fe | d<BG G2G | B>cd {e}d>cB | A<FD D2B |\
[1 e2f {ef}g>fe | d<BG G2G |
B>cd AFA | B<GE TE2 :|\
[2 B,<EE TE2F | G2A BAG | FdA BAF | G<EE TE2 |]
